Numix-Light/scalable/devices/laptop-symbolic.svg

<!-- Created with Inkscape (http://www.inkscape.org/) -->
<svg xmlns="http://www.w3.org/2000/svg" viewBox="0 0 16 16" style="enable-background:new">
 <path d="m 2.5 2 c -0.814 0 -1.5 0.686 -1.5 1.5 l 0 8 c 0 0.814 0.686 1.5 1.5 1.5 l 11 0 c 0.814 0 1.5 -0.686 1.5 -1.5 l 0 -8 c 0 -0.814 -0.686 -1.5 -1.5 -1.5 l -11 0 m 0.5 2 10 0 0 7 -10 0 0 -7" mix-blend-mode="normal" isolation="auto" white-space="normal" solid-opacity="1" solid-color="#000000" style="visibility:visible;shape-rendering:auto;color-interpolation-filters:linearRGB;fill:#353535;opacity:1;image-rendering:auto;fill-opacity:1;stroke:none;display:inline;color:#000;fill-rule:nonzero;color-rendering:auto;color-interpolation:sRGB"/>
 <path d="m 0 14 0 1 c 0 0.554 0.669 1 1.5 1 l 13 0 c 0.831 0 1.5 -0.446 1.5 -1 l 0 -1 -6 0 0 0.5 -4 0 0 -0.5 z" style="fill:#353535;opacity:1;fill-opacity:1;stroke:none;fill-rule:nonzero"/>
</svg>

<?xml version="1.0" encoding="UTF-8" standalone="no"?>
<!-- Created with Inkscape (http://www.inkscape.org/) -->

<svg
   xmlns:dc="http://purl.org/dc/elements/1.1/"
   xmlns:cc="http://creativecommons.org/ns#"
   xmlns:rdf="http://www.w3.org/1999/02/22-rdf-syntax-ns#"
   xmlns:svg="http://www.w3.org/2000/svg"
   xmlns="http://www.w3.org/2000/svg"
   xmlns:sodipodi="http://sodipodi.sourceforge.net/DTD/sodipodi-0.dtd"
   xmlns:inkscape="http://www.inkscape.org/namespaces/inkscape"
   id="svg7384"
   style="enable-background:new"
   height="16"
   width="16"
   version="1.1"
   inkscape:version="0.91 r"
   sodipodi:docname="laptop-symbolic.svg">
  <sodipodi:namedview
     pagecolor="#ffffff"
     bordercolor="#666666"
     borderopacity="1"
     objecttolerance="10"
     gridtolerance="10"
     guidetolerance="10"
     inkscape:pageopacity="0"
     inkscape:pageshadow="2"
     inkscape:window-width="1920"
     inkscape:window-height="1056"
     id="namedview10"
     showgrid="true"
     inkscape:zoom="41.7193"
     inkscape:cx="9.3675019"
     inkscape:cy="3.2993189"
     inkscape:window-x="0"
     inkscape:window-y="24"
     inkscape:window-maximized="1"
     inkscape:current-layer="svg7384">
    <inkscape:grid
       type="xygrid"
       id="grid4138" />
  </sodipodi:namedview>
  <metadata
     id="metadata90">
    <rdf:RDF>
      <cc:Work
         rdf:about="">
        <dc:format>image/svg+xml</dc:format>
        <dc:type
           rdf:resource="http://purl.org/dc/dcmitype/StillImage" />
        <dc:title>Paper Symbolic Icon Theme</dc:title>
      </cc:Work>
    </rdf:RDF>
  </metadata>
  <title
     id="title8473">Paper Symbolic Icon Theme</title>
  <defs
     id="defs7386">
    <filter
       id="filter7554"
       style="color-interpolation-filters:sRGB">
      <feBlend
         id="feBlend7556"
         in2="BackgroundImage"
         mode="darken" />
    </filter>
  </defs>
  <path
     style="color:#000000;font-style:normal;font-variant:normal;font-weight:normal;font-stretch:normal;font-size:medium;line-height:normal;font-family:sans-serif;text-indent:0;text-align:start;text-decoration:none;text-decoration-line:none;text-decoration-style:solid;text-decoration-color:#000000;letter-spacing:normal;word-spacing:normal;text-transform:none;direction:ltr;block-progression:tb;writing-mode:lr-tb;baseline-shift:baseline;text-anchor:start;white-space:normal;clip-rule:nonzero;display:inline;overflow:visible;visibility:visible;opacity:1;isolation:auto;mix-blend-mode:normal;color-interpolation:sRGB;color-interpolation-filters:linearRGB;solid-color:#000000;solid-opacity:1;fill:#353535;fill-opacity:1;fill-rule:nonzero;stroke:none;stroke-width:2;stroke-linecap:square;stroke-linejoin:miter;stroke-miterlimit:4;stroke-dasharray:none;stroke-dashoffset:0;stroke-opacity:1;color-rendering:auto;image-rendering:auto;shape-rendering:auto;text-rendering:auto;enable-background:accumulate"
     d="M 2.5,2 C 1.6862972,2 1,2.6862972 1,3.5 l 0,8 C 1,12.313703 1.6862972,13 2.5,13 l 11,0 c 0.813703,0 1.5,-0.686297 1.5,-1.5 l 0,-8 C 15,2.6862972 14.313703,2 13.5,2 L 2.5,2 Z M 3,4 13,4 13,11 3,11 3,4 Z"
     id="rect4140"
     inkscape:connector-curvature="0" />
  <path
     style="opacity:1;fill:#353535;fill-opacity:1;fill-rule:nonzero;stroke:none;stroke-width:2;stroke-linecap:square;stroke-linejoin:miter;stroke-miterlimit:4;stroke-dasharray:none;stroke-dashoffset:0;stroke-opacity:1"
     d="m 0,14 0,1 c 0,0.554 0.669,1 1.5,1 l 13,0 c 0.831,0 1.5,-0.446 1.5,-1 l 0,-1 -6,0 0,0.5 -4,0 0,-0.5 z"
     id="rect4148"
     inkscape:connector-curvature="0"
     sodipodi:nodetypes="csssscccccc" />
</svg>
